X: 1559
T: Pek Revâdır Sevdiğim...
C: Ahmet Rasim Bey
O: Turkey
F: http://compmusic.upf.edu/node/140
N: suzinak--sarki--curcuna--pek_revadir--ahmet_rasim_bey
N: makam= suzinak
N: form= sarki
N: usul= curcuna = 10/8
M: 10/8
L: 1/16
K: C _1/4B _7/8e ^f 
Q: 1/4=198
%%MIDI tuningsystem comma53
g4 f2e4f4e2 d4  | e4 d2c4B2 c2d4z2  | \
w:  ARANAĞME  |   | 
G2_7/8A2 B2c2 d2e2 f2e2 d2c2  | 
w:   | 
d4 e2d2 c2B2 c2d4z2  | g4 f2e4f4e2 d4  | \
w:   |   | 
e4 d2c4B2 c2d4z2  | 
w:   | 
g2f2 e2d2 c2B2 c2B2 _7/8A2G2  | G4 e2d2 c2B2 _7/8A2G4z2  | \
w:   |   | 
g4 f2e4f4e2 d4  | 
w:  ARANAĞME  | 
e4 d2c4B2 c2d4z2  | G2_7/8A2 B2c2 d2e2 f2e2 d2c2  | \
w:   |   | 
d4 e2d2 c2B2 c2d4z2  | 
w:   | 
g4 f2e4f4e2 d4  | e4 d2c4B2 c2d4z2  | \
w:   |   | 
g2f2 e2d2 c2B2 c2B2 _7/8A2G2  | 
w:   | 
G4 e2d2 c2B2 _7/8A2G4z2  | d4 c2c2 B2B2 A2A4G2  | \
w:   |  Pek  *  re *  vâ  | 
c8-c2cB cdB4_7/8A2  | 
w:  dır   | 
B6c4B2 _7/8A2A6  | G8-G2G8-G2  | c4 B2c4d8z2  | \
w:  sev di ğim   |  et  |  tik *  le rin    | 
z4 =e2d2 c2B2 A2G4z2  | 
w:  SAZ  | 
d4 c2c2 B2B2 A2A4G2  | c8-c2cB cdB4_7/8A2  | \
w:  Pek  *  re *  vâ  |  dır   | 
B6c4B2 _7/8A2A6  | 
w:  sev di ğim   | 
G8-G2G8-G2  | c4 B2c4d8z2  | z4 e2d2 c2B2 c2d6  | \
w:  et  |  tik *  le rin    |  SAZ  | 
d6e4f4e2 d2c2  | 
w:  Â şı kı   | 
e8-e2ed efd4c2  | d4 c2c4c2 B2_7/8A2 G2A2  | \
w:  gün  |  ler *  ce  bek  | 
B2c2 d6e4d2 c2B2  | 
w:  let  | 
B4 A2A2 G2G8z2  | z4 e2d2 c2B2 c2d4z2  | \
w:  tik *  le *  rin    |  SAZ  | 
d6e4f4e2 d2c2  | e8-e2ed efd4c2  | 
w:  Â şı kı   |  gün  | 
d4 c2c4c2 B2_7/8A2 G2A2  | B2c2 d6e4d2 c2B2  | \
w:  ler *  ce  bek  |  let  | 
B4 A2A2 G2G8z2  | 
w:  tik *  le *  rin    | 
z4 =e2d2 c2B2 d2c4z2  | =e4 d2d2 c2c4c6  | \
w:  SAZ  |  Gel *  me *  yip_ ağ  | 
c6c4c4c4B2  | B4 A2B2 A2A8z2  | 
w:  yâr_ i le  git  |  tik *  le *  rin    | 
d18z2  | ^c8-^c2c2 d2=e4d2  | d8-d2d8-d2  | \
w:  âh    |  âh    |   | 
d4 =f2=e2 d2c2 B2c4z2  | =e4 d2d2 c2c4c6  | 
w:  SAZ  |  Gez  *  gö *  rüş_ eğ  | 
c6c4c4c4z2  | B6B4d8-d2  | d2^c2 _7/8B6B4B2 A2G2  | \
w:  len  sı kıl ma   |  zev ke  bak    |   | 
G18z2  | d4 c2c4c4c4B2  | 
w:   |  Bir  *  ge lir  in  | 
B6B2 A2A2 G2c2 B2A2  | A8-A2z8-z2  | \
w:  san  ci *  hâ  |  na   | 
d4 c2c4c4c4B2  | B6B2 A2A2 G2B2 A2G2  | 
w:  Bir  *  ge lir  in  |  san  ci *  hâ  | 
G8-G2Bc BAB6  | c2B2 _7/8A2A2 G2G8z2  | \
w:  na   |  dur *  *  ma  *  çak    | 
g4 f2e4f4e2 d4  | e4 d2c4B2 c2d4z2  | 
w:  ARANAĞME  |   | 
G2_7/8A2 B2c2 d2e2 f2e2 d2c2  | d4 e2d2 c2B2 c2d4z2  | \
w:   |   | 
g4 f2e4f4e2 d4  | 
w:   | 
e4 d2c4B2 c2d4z2  | g2f2 e2d2 c2B2 c2B2 _7/8A2G2  | \
w:   |   | 
G4 e2d2 c2B2 _7/8A2G4z2  | 
w:   | 
g4 f2e4f4e2 d4  | e4 d2c4B2 c2d4z2  | \
w:  ARANAĞME  |   | 
G2_7/8A2 B2c2 d2e2 f2e2 d2c2  | 
w:   | 
d4 e2d2 c2B2 c2d4z2  | g4 f2e4f4e2 d4  | \
w:   |   | 
e4 d2c4B2 c2d4z2  | 
w:   | 
g2f2 e2d2 c2B2 c2B2 _7/8A2G2  | G4 e2d2 c2B2 _7/8A2G4z2  | \
w:   |   | 
d4 c2c2 B2B2 A2A4G2  | 
w:  Pek  *  re *  vâ  | 
c8-c2cB cdB4_7/8A2  | B6c4B2 _7/8A2A6  | \
w:  dır   |  sev di ğim   | 
G8-G2G8-G2  | c4 B2c4d8z2  | 
w:  et  |  tik *  le rin    | 
z4 =e2d2 c2B2 A2G4z2  | d4 c2c2 B2B2 A2A4G2  | \
w:  SAZ  |  Pek  *  re *  vâ  | 
c8-c2cB cdB4_7/8A2  | 
w:  dır   | 
B6c4B2 _7/8A2A6  | G8-G2G8-G2  | c4 B2c4d8z2  | \
w:  sev di ğim   |  et  |  tik *  le rin    | 
z4 e2d2 c2B2 c2d6  | 
w:  SAZ  | 
d6e4f4e2 d2c2  | e8-e2ed efd4c2  | d4 c2c4c2 B2_7/8A2 G2A2  | 
w:  Â şı kı   |  gün  |  ler *  ce  bek  | 
B2c2 d6e4d2 c2B2  | B4 A2A2 G2G8z2  | \
w:  let  |  tik *  le *  rin    | 
z4 e2d2 c2B2 c2d4z2  | 
w:  SAZ  | 
d6e4f4e2 d2c2  | e8-e2ed efd4c2  | d4 c2c4c2 B2_7/8A2 G2A2  | 
w:  Â şı kı   |  gün  |  ler *  ce  bek  | 
B2c2 d6e4d2 c2B2  | B4 A2A2 G2G8z2  | \
w:  let  |  tik *  le *  rin    | 
z4 =e2d2 c2B2 d2c4z2  | 
w:  SAZ  | 
=e4 d2d2 c2c4c6  | c6c4c4c4B2  | B4 A2B2 A2A8z2  | \
w:  Gel *  me *  yip_ ağ  |  yâr_ i le  git  |  tik *  le *  rin    | 
d18z2  | ^c8-^c2c2 d2=e4d2  | 
w:  âh    |  âh    | 
d8-d2d8-d2  | d4 =f2=e2 d2c2 B2c4z2  | \
w:   |  SAZ  | 
=e4 d2d2 c2c4c6  | c6c4c4c4z2  | 
w:  Gez  *  gö *  rüş_ eğ  |  len  sı kıl ma   | 
B6B4d8-d2  | d2^c2 _7/8B6B4B2 A2G2  | \
w:  zev ke  bak    |   | 
G18z2  | d4 c2c4c4c4B2  | B6B2 A2A2 G2c2 B2A2  | 
w:   |  Bir  *  ge lir  in  |  san  ci *  hâ  | 
A8-A2z8-z2  | d4 c2c4c4c4B2  | B6B2 A2A2 G2B2 A2G2  | \
w:  na   |  Bir  *  ge lir  in  |  san  ci *  hâ  | 
G8-G2Bc BAB6  | 
w:  na   | 
c2B2 _7/8A2A2 G2G8z2  | |


